X:1
T:Shenandoah Falls
R:reel
F:http://www.thursdaycontra.com/~spuds/tunes/reels/ShenandoahFalls.abc
M:C|
L:1/8
K:A
   cd |\
"A"e2ef edcB | A2 (3cBA "D"d4 | "A"c3c "F#m"B2Ac | "Bm"BAGF "E"E2cd |\
"A"e2ef edcB | A2 (3cBA "D"d4 | "A"cBAc  "E"BAG2 | "A" A6 :|
|: G2 |\
"Bm"F4B4 | F2AB- BAF2 | "A"A2cA    BcAB | cABc- cBA2 |\
"Bm"F4B4 | F2AB- Bfed | "A"cdec "E"BAG2 | "A"A6 :|
